X:1
T:Donna DiBella
T:Intro
T:Glory to God in the Highest
%%score { ( 1 2 ) | ( 3 4 ) }
L:1/8
Q:1/4=120
M:4/4
K:D
V:1 treble nm="MusicXML Part"
V:2 treble 
V:3 bass 
V:4 bass 
V:1
 x8 || F2 FF F2 AB | A2 F4 D2 | B2 BB AF E2 | D8 | G4 F4 | B2 AG A3 D | d2 B2 A2 G2 | F4 F2 F2 | %9
w: |Glo- ry to God in the|high- est, and|peace to His peo- ple on|earth,|Lord God,|heav- en- ly King, al-|migh- ty God and|Fath- er, we|
 G2 (FE) F2 D2 | E2 (DC) D2 D2 | B2 A2 G2 F2 | E4 E4[Q:3/4=90] ||[K:F][M:6/8] FED C2 C/C/ | %14
w: wor- ship * You, we|give You * thanks, we|praise You for your|glo- ry.|Lord, Je- sus Christ, on- ly|
 FGA B B2 | B3 A3 | G2 F E3 | FED C2 C | FGA B2 B | B3 _A3 | (G2 F) E2 E/E/ | F_E_D/D/ CCC | %22
w: Son of the Fath- er,|Lord God,|Lamb of God,|you take a- way the|sin of the world, have|mer- cy|on * us. You are|seat- ed at the right hand of|
 (FG)!courtesy!=A BAB[Q:3/8=120] |[M:4/4] c4 G4 | A6 A2 ||[K:D] F2 F2 F2 AB | AF F6 | B2 G2 A2 FE | %28
w: God * the Fath- er, re-|ceive our|prayer; For|You a- lone are the|Ho- ly One,|You a- lone are the|
 D8 | G2 (FE) F2 GA | (B2 c2) d4 | d2 B2 A2 GG |[M:3/2] F2 E2 D2 D2- (3D2 D2 D2[Q:3/4=90] | %33
w: Lord.|You a- * lone are the|most * high|Je- sus Christ with the|Ho- ly Spir- it, * in the|
[M:6/8] GFE FDD | _BAG ADD[Q:3/8=120] |[M:4/4] d4 =c2 _B2 | A4 A4 | A8- | A8 |] %39
w: glo- ry of God, in the|glo- ry of God, in the|glo- ry of|God, A-|men.||
V:2
 [Gd]2 [GB]2 [EA]2 [CG]2 || D4 D4 | F2 D4 B,2 | D2 D2 D2 C2 | B,4 A,4 | D4 D4 | D4 D4 | %7
 E2 D2 E2 D2 | C4 C2 C2 | C4 B,4 | ^A,4 B,2 =C2 | D4 D4 | D4 =C4 ||[K:F][M:6/8] C3 G,3 | CCC _E3 | %15
 F3 F3 | D3 ^C3 | D2 B, A,2 A, | B,2 _E _D2 D | C3 C3 | _D3 C2 B, | _A,3 A,2 A, | _D2 F F3 | %23
[M:4/4] E4 G4 | E8 ||[K:D] D4 D4 | FF D2 C4 | D4 D2 C2 | B,4 A,4 | D4 D4 | G2 F2 F4 | G2 E2 E2 E2 | %32
[M:3/2] C2 C2 C2 B,2 A,4 |[M:6/8] D3 D2 _B, | _E3 =D2 D |[M:4/4] G4 G4 | F4 (3C2 D2 E2 | %37
 [A,DG]4 [A,DF]2 [G,=CE]2 | [A,DF]8 |] %39
V:3
 B,2 D2 B,2 A,2 || A,4 A,4 | D2 A,4 F,2 | G,2 B,2 A,2 G,2 | F,8 | G,4 A,4 | G,2 B,2 A,4 | G,4 B,4 | %8
 B,2 ^G,2 ^A,2 A,2 | ^A,4 B,4 | F,4 F,2 F,2 | G,4 B,4 | A,4 G,4 ||[K:F][M:6/8] F,3 E,3 | %14
 F,E,F, G,3 | B,3 C3 | B,3 A,3 | B,2 E, F,2 F, | F,2 F, F,2 =E, | F,3 F,3 | B,3 _A,2 G, | %21
 F,3 _E,2 E, | _A,2 C B,3 |[M:4/4] G,4 C4 | (D4 ^C4) ||[K:D] A,4 A,4 | D2 B,4 A,2 | %27
 G,2 B,2 A,2 G,2 | F,8 | G,4 A,4 | D2 ^A,2 B,4 | E2 D2 B,2 B,2 |[M:3/2] ^A,2 F,2 F,4 F,4 | %33
[M:6/8] G,3 A,2 =F, | _B,3 A,2 A, |[M:4/4] _B,4 B,4 | (3D2 C2 B,2 (3A,2 B,2 C2 | %37
 (3D,2 =C,2 _B,,2 A,,2 B,,2 | A,,8 |] %39
V:4
 E,,4 A,,4 || D,4 C,4 | B,,4 A,,4 | G,,4 F,,2 A,,2 | B,,4 =C,4 | B,,4 A,,4 | G,,4 F,,4 | E,,8 | %8
 F,,8 | E,4 D,4 | C,4 B,,2 A,,2 | G,,4 E,,4 | A,,4 (3_B,,2 A,,2 G,,2 ||[K:F][M:6/8] A,,3 B,,3 | %14
 A,,G,,F,, _E,,3 | D,,2 !courtesy!=E,, F,,3 | G,,3 A,,3 | G,,2 C, F,,2 _E, | _D,2 C, B,,2 G,, | %19
 F,,2 G,, _A,,3 | B,,3 C,3 | _D,3 _A,,2 _G,, | F,,2 _E,, _D,,3 |[M:4/4] C,,4 E,,4 | A,,8 || %25
[K:D] D,4 C,4 | B,,4 A,,4 | G,,4 F,,2 A,,2 | B,,4 =C,4 | B,,4 A,,4 | G,,2 F,,2 B,,2 A,,2 | %31
 G,,4 E,,4 |[M:3/2] F,,2 ^A,,2 B,,4 =C,4 |[M:6/8] B,,3 A,,2 _A,, | G,,3 ^F,,2 =F,, | %35
[M:4/4] =E,,2 ^F,,2 G,,2 ^G,,2 | A,,8 | D,,8- | [D,,F,]8 |] %39

